X: 1
T:Barcarolle
M: 6/8
L: 1/4
Q: 1/2=100
K: G
 (Bc/2) (cB/2) | (B/2A/2c/2) (cB/2) | (B/2A/2c/2) (cB/2) | B3/2-B z/2 :| (de/2) (ef/2) |
 (fg/2) (gf/2)| (fe/2) (ed/2) | d3/2-d z/2 | (de/2) (ef/2) | (fg/2) (gf/2) |  (fe/2) (ed/2) | g3/2-g/2 z/2 z/2 |]
